X: 54
M:6/8
L:1/8
K:D
|:A|cBc dfd|ecA AGE|cBc dcA|AGE GAB|
cBc dcd|efg fed|ecA GFE|FDD D2:|
|:A|dcd AGF|EDE GFE|dcd AFA|GFE D2 A|
dcd AGF|E/2F/2GE fed|ecA GFE|FDD D2:|
|:A|dFF AFF|dFF AGF|GEE cEE|GBA GFE|
dFF AFF|A/2B/2de fed|ecA GFE|FDD D2:||

